assets/images/header/contacts.svg

<svg width="21" height="20" viewBox="0 0 21 20" fill="none" xmlns="http://www.w3.org/2000/svg">
<path d="M8.57317 5.85292C8.79994 5.33211 8.86478 4.75511 8.7593 4.19701C8.65368 3.63907 8.38261 3.12554 7.98126 2.72361L6.08487 0.828157C5.45477 0.190613 4.55665 -0.104957 3.67103 0.0335163C2.77551 0.165167 1.99763 0.718711 1.58014 1.52185C0.66316 3.24746 0.427243 5.25449 0.919144 7.1457C2.13107 11.9459 8.7284 18.5477 13.5278 19.7509C14.1757 19.9151 14.8414 19.9988 15.5097 20C16.7798 19.9991 18.0302 19.6869 19.1517 19.0908C19.949 18.675 20.5007 17.9046 20.6377 17.0159C20.7747 16.1272 20.4805 15.2263 19.8454 14.5897L17.9499 12.6933C17.5478 12.2918 17.0343 12.0207 16.4759 11.9151C15.9177 11.8096 15.3407 11.8744 14.8197 12.1014C14.3223 12.3158 13.8688 12.62 13.4816 12.9987C13.018 13.4651 11.3079 12.7896 9.59594 11.0786C7.88401 9.36776 7.21038 7.65765 7.67127 7.19209C8.05146 6.8049 8.35721 6.35089 8.57318 5.85306L8.57317 5.85292ZM8.30758 12.3659C10.3922 14.4487 13.1958 15.8534 14.7625 14.286V14.2859C14.9932 14.065 15.2622 13.8879 15.5562 13.7632C15.7407 13.6845 15.9446 13.6632 16.1414 13.7019C16.3382 13.7407 16.5189 13.8376 16.6598 13.9804L18.5554 15.876C18.7813 16.0993 18.8862 16.4175 18.8371 16.7315C18.7897 17.054 18.5897 17.3339 18.2999 17.4834C16.9724 18.1966 15.4231 18.3774 13.9669 17.9888C9.84308 16.9487 3.72557 10.8314 2.68566 6.70216C2.29756 5.24473 2.47852 3.69429 3.19202 2.36563C3.34254 2.07752 3.62228 1.87907 3.94388 1.83204C3.9941 1.82397 4.04494 1.82001 4.09577 1.82017C4.36014 1.82001 4.61354 1.92579 4.79939 2.11376L6.695 4.00936C6.83745 4.15015 6.9344 4.33065 6.97321 4.52729C7.01187 4.72393 6.99072 4.92771 6.91218 5.11204C6.78814 5.40807 6.61098 5.67883 6.38954 5.91124C4.82219 7.47399 6.22486 10.275 8.30766 12.3662L8.30758 12.3659Z" fill="#A8A8B2"/>
</svg>

<svg width="21" height="20" fill="none" xmlns="http://www.w3.org/2000/svg"><path d="M8.573 5.853a2.831 2.831 0 0 0-.592-3.13L6.085.829A2.788 2.788 0 0 0 3.67.034a2.818 2.818 0 0 0-2.09 1.488 7.8 7.8 0 0 0-.662 5.624c1.212 4.8 7.81 11.402 12.609 12.605A8.127 8.127 0 0 0 15.51 20c1.27 0 2.52-.313 3.642-.91a2.826 2.826 0 0 0 .693-4.5l-1.895-1.897a2.83 2.83 0 0 0-3.13-.592 4.41 4.41 0 0 0-1.338.898c-.464.466-2.174-.21-3.886-1.92C7.884 9.368 7.21 7.658 7.67 7.192c.38-.387.686-.841.902-1.339Zm-.265 6.513c2.084 2.083 4.888 3.487 6.454 1.92.231-.221.5-.398.794-.523a1 1 0 0 1 1.104.217l1.895 1.896a1.012 1.012 0 0 1-.255 1.607 5.926 5.926 0 0 1-4.333.506C9.843 16.949 3.726 10.83 2.686 6.702a5.937 5.937 0 0 1 .506-4.336 1.014 1.014 0 0 1 1.607-.252l1.896 1.895a1 1 0 0 1 .217 1.103 2.635 2.635 0 0 1-.522.8c-1.568 1.562-.165 4.363 1.918 6.454Z" fill="#A8A8B2"/></svg>
